X: 162115
T: Dillon's Bridge
C: Joe Liddy
Z: BB
S: "The Leitrim Fiddler" (Dublin 1981)
L: 1/8
M: 4/4
R: reel
Q: 1/4 = 180
K: G
GA | GFDE FGAF | G2 dG eGd^c | AFDE FGAG | FDFA cFAF |
DGGF GFDF | G2 dD eG d2 | dcde dcAG | FGAF G2 :|
Ac | dggf g2 ag | fgag fdde | fefg af g2 | (3fed ec dcAc |
[1 dggf g2 ag | fgag fdcd | fd (3edc dcAG | FGAF G2 :|
[2 dg g2 (3agf ga | fgag fd^cd | f2 dc dcAG | FGAF G4 ||
